frontend/public/svg/STdarkHighlight.svg

<svg width="1086" height="58" viewBox="0 0 1086 58" fill="none" xmlns="http://www.w3.org/2000/svg">
<g clip-path="url(#clip0_1657_6213)">
<rect width="1086" height="58" transform="matrix(-1 0 0 -1 1086 58)" fill="#579783"/>
<path d="M1086 68.875L1063.38 68.0749C1040.75 67.2401 995.5 65.64 950.25 65.1182C905 64.5964 859.75 65.153 814.5 66.0922C769.25 67.0314 724 68.2837 678.75 68.2489C633.5 68.1793 588.25 66.7879 543 64.2486C497.75 61.6744 452.5 57.9872 407.25 55.7261C362 53.4651 316.75 52.6302 271.5 53.3259C226.25 54.0216 181 56.2479 135.75 55.7261C90.5 55.2044 55.125 46.0064 32.5 44.4062L0 39.875V0H22.625C45.25 0 90.5 0 135.75 0C181 0 226.25 0 271.5 0C316.75 0 362 0 407.25 0C452.5 0 497.75 0 543 0C588.25 0 633.5 0 678.75 0C724 0 769.25 0 814.5 0C859.75 0 905 0 950.25 0C995.5 0 1040.75 0 1063.38 0H1086V68.875Z" fill="#579783"/>
<path d="M1086 28.7731L1063.38 28.7077C1040.75 28.675 995.5 28.5442 950.25 27.4652C905 26.3862 859.75 24.2936 814.5 22.9858C769.25 21.6779 724 21.1547 678.75 24.359C633.5 27.5633 588.25 34.5604 543 35.9663C497.75 37.3723 452.5 33.2525 407.25 30.9637C362 28.675 316.75 28.2172 271.5 29.9828C226.25 31.7158 181 35.6394 135.75 37.4377C90.5 39.236 45.25 38.909 22.625 38.7455L0 38.5821V2.67029e-05L22.625 2.67029e-05C45.25 2.67029e-05 90.5 2.67029e-05 135.75 2.67029e-05C181 2.67029e-05 226.25 2.67029e-05 271.5 2.67029e-05C316.75 2.67029e-05 362 2.67029e-05 407.25 2.67029e-05C452.5 2.67029e-05 497.75 2.67029e-05 543 2.67029e-05C588.25 2.67029e-05 633.5 2.67029e-05 678.75 2.67029e-05C724 2.67029e-05 769.25 2.67029e-05 814.5 2.67029e-05C859.75 2.67029e-05 905 2.67029e-05 950.25 2.67029e-05C995.5 2.67029e-05 1040.75 2.67029e-05 1063.38 2.67029e-05H1086V28.7731Z" fill="#003A42"/>
</g>
<defs>
<clipPath id="clip0_1657_6213">
<rect width="1086" height="58" fill="white" transform="matrix(-1 0 0 -1 1086 58)"/>
</clipPath>
</defs>
</svg>

<svg xmlns="http://www.w3.org/2000/svg" width="1086" height="58" fill="none" viewBox="0 0 1086 58"><g clip-path="url(#a)"><path fill="#579783" d="M1086 58H0V0h1086z"/><path fill="#579783" d="m1086 68.875-22.62-.8c-22.63-.835-67.88-2.435-113.13-2.957s-90.5.035-135.75.974c-45.25.94-90.5 2.192-135.75 2.157-45.25-.07-90.5-1.461-135.75-4-45.25-2.575-90.5-6.262-135.75-8.523-45.25-2.26-90.5-3.096-135.75-2.4s-90.5 2.922-135.75 2.4-80.625-9.72-103.25-11.32L0 39.875V0h1086z"/><path fill="#003A42" d="m1086 28.773-22.62-.065c-22.63-.033-67.88-.164-113.13-1.243s-90.5-3.171-135.75-4.48c-45.25-1.307-90.5-1.83-135.75 1.374S588.25 34.56 543 35.966s-90.5-2.714-135.75-5.002c-45.25-2.289-90.5-2.747-135.75-.981-45.25 1.733-90.5 5.656-135.75 7.455-45.25 1.798-90.5 1.471-113.125 1.307L0 38.583V0h1086z"/></g><defs><clipPath id="a"><path fill="#fff" d="M1086 58H0V0h1086z"/></clipPath></defs></svg>
